X:1
T:O che bella pietade
T:O che bella pietade
T:Marc'Antonio Tornioli
T:Source : Canzonette spirituale a tre voci---Libro Primo---Venetia---Ang.Gardano---1607. Editor : André Vierendeels (22/06/16).
T:Notes : Original clefs : C1, C1, F4 Editorial accidentals above the staff 
T:©
T:©
T:©
T:©
C:Marc'Antonio Tornioli
Z:©
%%score [ 1 2 3 ]
L:1/8
Q:1/4=120
M:4/4
K:F
V:1 treble nm="Soprano 1" snm="S 1"
V:2 treble nm="Soprano 2" snm="S 2"
V:3 bass nm="Bass" snm="B"
V:1
 z2 d4 d2 | d2 cB c4- | c2 BA =B4 | c8 | z8 | B2 Bc d2 B2 | c8 | A4 z4 | z2 GG c4 | A2 AA d4 | %10
w: O che|bel- lla pie- ta-||de,||fat- ta di la- gri-|met-|te|ne' be- gli'oc-|chi, ne be- gli'oc-|
w: Son quel-|le la- gri- met-||te,||vi- v'e ve- re pa-|ro-|le,|de lan- gui-|di oc- chi tuoi,|
w: ||||||||||
 c2 A2 G4 | G4 z4 | z2 B2 d2 d2 | cA d4 ^c2 | d8 :: z4 d4 | A4 A4 | _e2 d2 c4 | B4 A4 | G4 ^F4 | %20
w: chebved' _ i-|o,|del par- go-|let to Di- *|o.|Deh|fat- ti|nel mio co-|re, ca-|ra'e bel-|
w: oc- chi tuo-|i,|ch'o- gn'hor par-|la- no'a no- *|i.||||||
w: |||||E|di con|que- sto pian-|to, pren-|di per|
 G2 D2 ^F4 |"^-natural" G4 F4 | E4 D4 | E8 | c2 A2 B2 BB | A4 DEFG | A4 BABG | AGAF GABc | %28
w: la pie- tà|fo- co|d'a- mo-|re,|ca- ra'e bel- la pie-|ta fo- * * *|* co _ _ _|d'a- * * * mo- * * *|
w: ||||||||
w: pe- gno del|suo san-|gue'in- tan-|to,|pren- di per pe- gno|nel suo _ _ _|_ san- * * *|gue'in- * * * * * * *|
 d3 c/B/ A4 | G8 :| %30
w: |re.|
w: ||
w: tan- * * *|to.|
V:2
 B4 A4 | G6 FE | F8- | F4 E4 | F2 FG A2 F2 | G4 F4 |"^-natural" _E2 EF G2 E2 | ^F4 A2 =BB | %8
w: O che|bel la pie-|ta-|* de,|fat- ta di la- gri-|met- te,|fat- ta di la- gri-|met- te, ne' be-|
w: Son quel-|le la- gri-|met-|* te,|vi- v'e ve- re pa-|ro- le,|de lan- gui- di oc-|chi tuoi, de lan-|
w: ||||||||
 c2 E4 EE | ^F4 G4- | G2 F2 E4 | E2 E2 G2 G2 | D4 F4 | E2 F2 E4 | ^F8 :: B8 | ^F6 F2 | GA B4 A2 | %18
w: gli'oc- chi, ne' be-|gli'oc- chi|_ ved' i-|o, del par- go-|let- to|Di- * *|o.|Deh|fat- ti|nel mio co- *|
w: gui- di, de lan-|gui- di|_ oc- chi|tuoi, ch'o- gn'hor par-|la- no'a|no- * *|i.||||
w: |||||||E|di con|que- sto pian- *|
 B4 c2 d2 | c2 Bc A4 | B2 B2 A2 Ad | B2 c2 A2 D2 | G2 c4 =B2 | c8 | C4 D4 | D2 DD B,2 D2- | %26
w: re, ca- ra'e|bel- la pie- tà,|ca- ra'e bel- la pie-|tà fo- co d'a-|mo- * *|re,|ca- ra'e|bel- la pie- à ca-|
w: ||||||||
w: to, pren- di|per pe- gno del|suo san _ gue in-|tan- * * *||to,|pren- di|per, pren- di _ per|
 D2 D2 D2 B,B, | C3 D _EF G2 | ^F2 G3 F/E/ F2 | G8 :| %30
w: * ra bel- la pie-|à fo- co d'a- mo-||re.|
w: ||||
w: _ pe- gno nel suo|san- * * * *|gue'in- tan- * * *|to.|
V:3
 G,4 F,4 | _E,6 D,C, | D,8 | C,8 | D,2 D,E, F,2 D,2 | _E,4 D,4 | C,2 C,D, _E,2 C,2 | %7
w: O che|bel- la pie-|ta-|de,|fat- ta di la- gri-|met- te,|fa- ta di la- gri-|
w: Son quel-|le la- gri-|met-|te,|vi- v'e ve- re pa-|ro- le,|de lan- gui- di oc-|
w: |||||||
 D,4 D,2 G,,G,, | C,4 A,,2 A,,A,, | D,4 =B,,2 B,,2 | C,8 | C,4 z2 E,2 | G,2 G,2 D,E,F,G, | %13
w: met- te, ne' be-|gli'oc- chi, ne be-|gli'oc- chi ved'|i-|o, del|par- go- let- * * *|
w: chi tuoi, de lan-|gui- di, de lan-|gui- di oc-|chi|tuoi, ch'o-|gn'hor par- la- * * *|
w: ||||||
 A,2 D,2 A,,4 | D,8 :: G,,8 | D,6 D,2 | C,2 B,,2 F,4 | B,,4 F,2 D,2 | _E,2 E,E, D,4 | %20
w: * to Di-|o.|Deh|fat- ti|nel mio co-|re, ca- ra'e|bel- la pie- ta,|
w: * no'a no-|i.||||||
w: ||E|di con|que- sto pian-|to, pren- di|per pe- gno del|
 G,,A,,B,,C, D,4 | _E,D,E,C, D,C,D,B,, | C,D,E,F, G,4 | C8 | A,4 G,4 | ^F,4 G,2 D,2 | ^F,4 G,4 | %27
w: fo- * * * *|co _ _ _ d'a- * * *|mo- * * * *|re,|ca- ra'e|bel- la pie-|tà fo-|
w: |||||||
w: suo _ _ _ san-|gue 'in _ _ tan- * * *||to,|pren- di|per pe- gno|nel suo|
"^-natural" F,4 _E,4 | D,8 | G,,8 :| %30
w: co d'a-|mo-|re.|
w: |||
w: san- gu'in|tan-|to.|

